X: 207
T: Epstein Medley (tune 2)
M: 2/4
L: 1/8
K: G exp =B_e_A
|: "G"dc  cB | "(Fm)"dc cB \
|  "G"dc  cB | "(Fm)"BA AG \
|  "G"G2  GB-|  "Fm" Bc BA \
|1 "G"B4-    |       B4   :|2 "G"G4- | G4 
|: "G7"d4-   | d4 \
|  "Cm"ed ed | ed dc \
|      dc cB | BA AG \
|   "G"G2 GB-| "Fm"Bc BA \
|1  "G"B4-   | B4 :|2"G"G4- | G4 |]



